packages/bezier-icons/icons/wifi-poor.svg

<svg width="24" height="24" viewBox="0 0 24 24" fill="none" xmlns="http://www.w3.org/2000/svg">
<g opacity="0.3">
<path d="M16.4393 14.5875C16.6528 14.7628 16.9682 14.7558 17.1582 14.5553L18.4993 13.1397C18.7082 12.9192 18.6997 12.5698 18.4682 12.3733C16.7245 10.893 14.4665 10 12 10C9.5335 10 7.27555 10.893 5.53183 12.3733C5.30029 12.5698 5.29186 12.9192 5.50074 13.1397L6.84186 14.5553C7.0318 14.7558 7.34724 14.7628 7.56068 14.5875C8.76875 13.5955 10.3148 13 12 13C13.6852 13 15.2313 13.5955 16.4393 14.5875Z" fill="#313234"/>
<path d="M19.883 10.9522C20.0911 11.1337 20.407 11.126 20.5969 10.9255L21.938 9.50989C22.1469 9.28941 22.1382 8.94052 21.9103 8.73978C19.2675 6.412 15.7986 5 12 5C8.20139 5 4.73257 6.412 2.08976 8.73978C1.86185 8.94053 1.85313 9.28941 2.06201 9.50989L3.40313 10.9255C3.59306 11.126 3.90891 11.1337 4.11706 10.9522C6.22557 9.11358 8.98275 8 12 8C15.0173 8 17.7744 9.11358 19.883 10.9522Z" fill="#313234"/>
</g>
<path d="M8.98027 16.0145C8.73833 16.1981 8.73057 16.5489 8.93945 16.7694L11.637 19.6169C11.8342 19.825 12.1658 19.825 12.363 19.6169L15.0605 16.7694C15.2694 16.5489 15.2617 16.1981 15.0197 16.0145C14.1807 15.3778 13.1345 15 12 15C10.8655 15 9.81929 15.3778 8.98027 16.0145Z" fill="#313234"/>
</svg>

<svg xmlns="http://www.w3.org/2000/svg" width="24" height="24" fill="none" viewBox="0 0 24 24"><g fill="#313234" opacity=".3"><path d="M16.44 14.588a.53.53 0 0 0 .718-.033L18.5 13.14c.21-.22.2-.57-.03-.767A9.96 9.96 0 0 0 12 10a9.96 9.96 0 0 0-6.468 2.373.527.527 0 0 0-.031.767l1.34 1.415c.19.2.506.208.72.033A6.97 6.97 0 0 1 12 13c1.685 0 3.231.595 4.44 1.588"/><path d="M19.883 10.952a.517.517 0 0 0 .714-.027l1.341-1.415c.209-.22.2-.57-.028-.77A14.94 14.94 0 0 0 12 5a14.94 14.94 0 0 0-9.91 3.74.535.535 0 0 0-.028.77l1.341 1.415c.19.201.506.209.714.027A11.95 11.95 0 0 1 12 8c3.017 0 5.774 1.114 7.883 2.952"/></g><path fill="#313234" d="M8.98 16.015c-.242.183-.25.534-.04.754l2.697 2.848a.5.5 0 0 0 .726 0l2.698-2.848c.208-.22.2-.57-.041-.754A4.98 4.98 0 0 0 12 15c-1.134 0-2.18.378-3.02 1.015"/></svg>
